frontend/public/icons/tokyo/15_Chiyoda.svg

<svg xmlns="http://www.w3.org/2000/svg" width="600" height="600" version="1.0"><path d="M300 0C134.4 0 0 134.4 0 300s134.4 300 300 300 300-134.4 300-300c0-126.456-78.367-234.728-189.156-278.844a1415.226 1415.226 0 0 1-36.531 40.094C476.058 92.918 550 187.875 550 300c0 36.05-7.653 70.313-21.406 101.281-43.073-31.568-99.669-56.798-162.625-67.781 5.768-66.748-11.826-143.328-58.406-214.625C341.385 87.261 373.397 53.835 405 20L225 125l22.688 30.281c41.583 60.536 60.067 120.162 62.968 172.469-77.685-2.592-161.339 17.667-239.187 73.688C57.672 370.428 50 336.11 50 300 50 162 162 50 300 50c12.593 0 24.968.95 37.063 2.75 5.512-3.215 11.018-6.442 16.53-9.656 15.547-7.891 29.725-18.696 45.5-26.282C368.067 5.947 334.724 0 300 0Zm-.094 379.75a231.67 231.67 0 0 1 8.375.156c-2.929 19.077-8.03 36.525-14.812 51.906-19.006 43.1-112.854 89.643-175.375 31.188.554-1.177 1.175-2.208 1.906-3 47.638-51.568 113.395-80.2 179.906-80.25zm55.938 6.875C398.986 397.478 440.352 421.392 475 460c2.327 2.593 3.64 8.032 4.375 14.063C433.932 520.885 370.353 550 300 550c-46.087 0-89.26-12.502-126.344-34.281 91.768 8.51 157.202-47.254 182.188-129.094z" style="opacity:1;fill:#fff;fill-opacity:1;fill-rule:nonzero;stroke:none;stroke-width:100;stroke-linecap:square;stroke-linejoin:miter;stroke-miterlimit:4;stroke-dasharray:none;stroke-opacity:1"/></svg>

<?xml version="1.0"?>
<svg width="600" height="600" xmlns="http://www.w3.org/2000/svg" xmlns:svg="http://www.w3.org/2000/svg" version="1.0">
 <g class="layer">
  <title>Layer 1</title>
  <path d="m300,0c-165.6,0 -300,134.4 -300,300s134.4,300 300,300s300,-134.4 300,-300c0,-126.46 -78.37,-234.73 -189.16,-278.84a1415.23,1415.23 0 0 1 -36.53,40.09c101.75,31.67 175.69,126.63 175.69,238.75c0,36.05 -7.65,70.31 -21.41,101.28c-43.07,-31.57 -99.66,-56.8 -162.62,-67.78c5.77,-66.75 -11.83,-143.33 -58.41,-214.62c33.83,-31.62 65.84,-65.05 97.44,-98.88l-180,105l22.69,30.28c41.58,60.54 60.07,120.16 62.97,172.47c-77.69,-2.59 -161.34,17.67 -239.19,73.69c-13.8,-31.01 -21.47,-65.33 -21.47,-101.44c0,-138 112,-250 250,-250c12.59,0 24.97,0.95 37.06,2.75c5.51,-3.21 11.02,-6.44 16.53,-9.66c15.55,-7.89 29.73,-18.69 45.5,-26.28c-31.02,-10.86 -64.37,-16.81 -99.09,-16.81zm-0.09,379.75a231.67,231.67 0 0 1 8.37,0.16c-2.93,19.07 -8.03,36.52 -14.81,51.9c-19.01,43.1 -112.85,89.64 -175.38,31.19c0.56,-1.18 1.18,-2.21 1.91,-3c47.64,-51.57 113.39,-80.2 179.91,-80.25zm55.93,6.88c43.15,10.85 84.51,34.76 119.16,73.37c2.33,2.59 3.64,8.03 4.38,14.06c-45.45,46.83 -109.03,75.94 -179.38,75.94c-46.09,0 -89.26,-12.5 -126.34,-34.28c91.76,8.51 157.2,-47.25 182.18,-129.09z" fill="#000000" fill-rule="nonzero" id="svg_1" stroke-linecap="square" stroke-miterlimit="4" stroke-width="100"/>
 </g>
</svg>
